X: 1224
T: Toss the Feathers
M:C|
L:1/8
R:Reel
B:O'Neill's 1224
N:1st Setting
N:Collected by J. O'Neill
Z:Transcribed by Trish O'Neil
K:D
D2(AD E)DA>D | D2(AG EG)G>E | D2(AD ED)EG |1 A(d{e}dB) {d}cAGE :|2 AcGE "End"ADD2 ||
Ad2dd2(cd) | edcd edcd | edad fdad | edc.e edce |
ea2^g e=g2e | dfed {d}cAGE | D2(ED) EAAB | cded {d}cAG"D.C."E |]


